gama.ui.shared/icons_svg/dark/toolbar/bar.collapse.svg

<svg height="24.75" viewBox="-853.502 -2876.228 24.75 24.75" width="24.75" xmlns="http://www.w3.org/2000/svg"><g fill="none"><circle cx="-841.127" cy="-2863.853" fill="#666" r="8"/><circle cx="-841.127" cy="-2863.853" r="8"/><circle cx="-841.127" cy="-2863.853" fill="#666" r="8"/><circle cx="-841.127" cy="-2863.853" r="8"/><g fill="#c0e0ff"><path d="m-843.5419-2863.9446c-.16.1371-.4038.1219-.5409-.0381-.1372-.16-.122-.4038.038-.541l2.6667-2.2857c.1448-.1219.3505-.1219.4953 0l2.6666 2.2857c.16.1372.1753.381.0381.541-.1371.16-.3809.1752-.5409.0381l-2.4153-2.0724-2.4152 2.0724zm0 3.0476c-.16.137-.4038.122-.5409-.038-.1372-.16-.122-.404.038-.541l2.6667-2.2857c.1448-.122.3505-.122.4953 0l2.6666 2.2857c.16.137.1753.381.0381.541-.1371.16-.3809.175-.5409.038l-2.4153-2.0724-2.4152 2.0724z"/><path d="m-841.1267-2855.8532c-4.419 0-8-3.5808-8-8 0-4.419 3.581-8 8-8 4.4191 0 8 3.581 8 8 0 4.4192-3.5809 8-8 8zm0-.7618c4 0 7.2381-3.2382 7.2381-7.2382s-3.2381-7.2381-7.2381-7.2381-7.2381 3.2381-7.2381 7.2381 3.2381 7.2382 7.2381 7.2382z"/></g></g></svg>

<?xml version="1.0" encoding="UTF-8" standalone="no"?>
<!DOCTYPE svg PUBLIC "-//W3C//DTD SVG 1.1//EN" "http://www.w3.org/Graphics/SVG/1.1/DTD/svg11.dtd">
<svg xmlns="http://www.w3.org/2000/svg" xmlns:dc="http://purl.org/dc/elements/1.1/" version="1.1" xmlns:xl="http://www.w3.org/1999/xlink" viewBox="-853.5017 -2876.2282 24.75 24.75" width="24.75" height="24.75">
  <defs/>
  <g id="SOURCES" stroke-dasharray="none" stroke-opacity="1" stroke="none" fill="none" fill-opacity="1">
    <title>SOURCES</title>
    <g id="SOURCES_Dark">
      <title>Dark</title>
      <g id="Group_12206">
        <g id="Graphic_12209">
          <circle cx="-841.1267" cy="-2863.8532" r="8.00000702080164" fill="#666"/>
          <circle cx="-841.1267" cy="-2863.8532" r="8.00000702080164" stroke="black" stroke-linecap="round" stroke-linejoin="round" stroke-width="0"/>
        </g>
        <g id="Graphic_12208"/>
        <g id="Graphic_12207">
          <circle cx="-841.1267" cy="-2863.8532" r="8.00000702080164" fill="#666"/>
          <circle cx="-841.1267" cy="-2863.8532" r="8.00000702080164" stroke="black" stroke-linecap="round" stroke-linejoin="round" stroke-width="0"/>
        </g>
      </g>
      <g id="Graphic_12404">
        <path d="M -843.5419 -2863.9446 C -843.7019 -2863.8075 -843.9457 -2863.8227 -844.0828 -2863.9827 C -844.22 -2864.1427 -844.2048 -2864.3865 -844.0448 -2864.5237 L -841.3781 -2866.8094 C -841.2333 -2866.9313 -841.0276 -2866.9313 -840.8828 -2866.8094 L -838.2162 -2864.5237 C -838.0562 -2864.3865 -838.0409 -2864.1427 -838.1781 -2863.9827 C -838.3152 -2863.8227 -838.559 -2863.8075 -838.719 -2863.9446 L -841.1343 -2866.017 L -843.5495 -2863.9446 Z M -843.5419 -2860.897 C -843.7019 -2860.76 -843.9457 -2860.775 -844.0828 -2860.935 C -844.22 -2861.095 -844.2048 -2861.339 -844.0448 -2861.476 L -841.3781 -2863.7617 C -841.2333 -2863.8837 -841.0276 -2863.8837 -840.8828 -2863.7617 L -838.2162 -2861.476 C -838.0562 -2861.339 -838.0409 -2861.095 -838.1781 -2860.935 C -838.3152 -2860.775 -838.559 -2860.76 -838.719 -2860.897 L -841.1343 -2862.9694 L -843.5495 -2860.897 Z" fill="#c0e0ff"/>
      </g>
      <g id="Graphic_12402">
        <path d="M -841.1267 -2855.8532 C -845.5457 -2855.8532 -849.1267 -2859.434 -849.1267 -2863.8532 C -849.1267 -2868.2722 -845.5457 -2871.8532 -841.1267 -2871.8532 C -836.7076 -2871.8532 -833.1267 -2868.2722 -833.1267 -2863.8532 C -833.1267 -2859.434 -836.7076 -2855.8532 -841.1267 -2855.8532 Z M -841.1267 -2856.615 C -837.1267 -2856.615 -833.8886 -2859.8532 -833.8886 -2863.8532 C -833.8886 -2867.8532 -837.1267 -2871.0913 -841.1267 -2871.0913 C -845.1267 -2871.0913 -848.3648 -2867.8532 -848.3648 -2863.8532 C -848.3648 -2859.8532 -845.1267 -2856.615 -841.1267 -2856.615 Z" fill="#c0e0ff"/>
      </g>
    </g>
  </g>
</svg>
